symbols/web/translate/materialsymbolsoutlined/translate_wght300grad200_24px.svg

<svg xmlns="http://www.w3.org/2000/svg" height="24" width="24"><path d="m11.925 22.725 4.9-12.875h2.225l4.9 12.875h-2.275L20.55 19.4h-5.175l-1.2 3.325Zm4.05-5.175h3.875l-1.875-5.325H17.9ZM3.425 19.5l-1.5-1.55 5.425-5.4q-.975-1.125-1.737-2.338Q4.85 9 4.275 7.7H6.5q.5.975 1.05 1.75t1.275 1.6q1.2-1.3 2-2.638.8-1.337 1.325-2.862H.225V3.425h7.5v-2.15h2.15v2.15h7.5V5.55H14.3q-.575 1.9-1.55 3.675Q11.775 11 10.375 12.6l2.575 2.65-.8 2.2-3.35-3.3Z"/></svg>

<svg xmlns="http://www.w3.org/2000/svg" height="24" width="24"><path d="M11.925 22.725 16.825 9.85H19.05L23.95 22.725H21.675L20.55 19.4H15.375L14.175 22.725ZM15.975 17.55H19.85L17.975 12.225H17.9ZM3.425 19.5 1.925 17.95 7.35 12.55Q6.375 11.425 5.613 10.212Q4.85 9 4.275 7.7H6.5Q7 8.675 7.55 9.45Q8.1 10.225 8.825 11.05Q10.025 9.75 10.825 8.412Q11.625 7.075 12.15 5.55H0.225V3.425H7.725V1.275H9.875V3.425H17.375V5.55H14.3Q13.725 7.45 12.75 9.225Q11.775 11 10.375 12.6L12.95 15.25L12.15 17.45L8.8 14.15Z"/></svg>
